X:54
T: ZWISCHEN FRANKREICH UND DEM BOEHMERWALD
N: B0538
O: Europa, Mitteleuropa, Deutschland
R: Wander -, Heimat - Lied
M: 3/4
L: 1/16
K: C
E2F2 | G6c2B2A2 | G3EG2
G2F2E2 | D4G6F2 | F4E4
E2F2 | G6c2B2A2 | ^G8
^F2E2 | A6c2B2A2 | e8
c2d2 | e4c4B2A2 | G3EG2
G2F2E2 | D4G6F2 | F4E2G2
c2d2 | e4c4B2A2 | G3EG2
G2F2E2 | D4G6B,2 | D4C4

